!!!OTL: I'm Tired, I'm Going to Rest
!!!OTL@@DE: Müde bin ich, geh zur Ruh
!!!ARE: Deutschland
**kern
*clefG2
*k[f#c#g#d#]
*M4/4
*MM 65
=1
{4B
4B
4d#
4d#
=2
4c#
4c#
4B}
=3
{4d#
4d#
4f#
4f#
=4
4e
4e
4d#}
4r
=5
{4f#
4f#
4g#
4g#
=6
4e
4e
4f#}
4r
=7
{4d#
4d#
4e
4e
=8
4c#
4c#
2B}
==
*-